X:1
T:Waltz Facile 
T:Charles James Dorn (1839 - 1909)
T:Guitar Album, Op.27
%%score ( 1 2 )
L:1/8
Q:1/4=132
M:3/4
K:E
V:1 treble-8 nm="Guitare classique"
V:2 treble-8 
V:1
"^ ≃ 132""_" B2 | GBeB g2 | GBeB g2 |x!3!AB!4!fAB |!<(! GBe!1!g !4!b2!<)! | GBeB g2 | GBeB g2 | %7
xABfAB | [GBe]4 ::[K:A] e2 | !>!deBede | !>!ceAece | !>!deBede |!<(! ce a3!<)! e | !>!deBede | %15
 !>!ceAece | !>!deBeGe | A4 :|[K:D] A2 | de f2 g2 | ^g2 a2 f2 | aa e2 !1!=f2 | !2!^ff !3!d2 A2 | %23
 de f2 g2 | ^g2 a2 f2 | a=g e2 c2 | d4 || A2 | de f2 g2 | ^g2 a2 f2 | aa e2 =f2 | ^ff d2 A2 | %32
 de f2 g2 | ^g2 a2 f2 | a=g e2 c2 | d4 ||[K:A] e2 | !>!deBede | !>!ceAece | !>!deBede | %40
!<(! ce a3!<)! e | !>!deBede | !>!ceAece | !>!deBeGe | A4 ||[K:E] B2 | GBeB g2 | GBeB g2 |xABfAB | %49
!<(! GBeg b2!<)! | GBeB g2 | GBeB g2 |xABfAB | [GBe]4 |] %54
V:2
 z2 | E,6 | E,6 | !2!B,6 | E,6 | E,6 | E,6 | B,6 | E,4 ::[K:A] z2 | E,6 | A,6 | E,6 | A,6 | E,6 | %15
 A,6 | E,6 | A,4 :|[K:D] z2 | D6 | D6 | A,6 | D6 | D6 | D6 | A,6 | D4 || z2 | D6 | D6 | A,6 | D6 | %32
 D6 | D6 | A,6 | D4 ||[K:A] z2 | E,6 | A,6 | E,6 | A,6 | E,6 | A,6 | E,6 | A,4 ||[K:E] z2 | E,6 | %47
 E,6 | B,6 | E,6 | E,6 | E,6 | B,6 | E,4 |] %54

